X:35
T:Ceasarea
R:jig
C:Paul S. Cranford
O:Cape Breton Island
S:http://www.cranfordpub.com
D:currently unrecorded
B:currently unpublished in book form
Z:psc, (re-formatted,updated 9/17/04)
N:
H:                                                        copyrights Cranford Publications, SOCAN
L:1/8
M:6/8
Q:300
K:C
F|ECE GEC|Ffe dcB|ece gec|edd d2 f|
ece geg|fef afa|gc'e dcd|1ecc c2:|2ecc cef||
|:g3 e2 g|fef def|gec cBc|edd def|
[1gag ece|fef def|gec Bcd|ecc cef:|
[2gfg efg|fef def|gc'e dcd|ecc c2|]
